svgs/solid/castle.svg

<svg xmlns="http://www.w3.org/2000/svg" viewBox="0 0 640 512"><!--! Font Awesome Pro 6.6.0 by @fontawesome - https://fontawesome.com License - https://fontawesome.com/license (Commercial License) Copyright 2024 Fonticons, Inc. --><path d="M128 16c0-8.8 7.2-16 16-16l32 0c8.8 0 16 7.2 16 16l0 48 48 0 0-48c0-8.8 7.2-16 16-16l32 0c8.8 0 16 7.2 16 16l0 48 32 0 0-48c0-8.8 7.2-16 16-16l32 0c8.8 0 16 7.2 16 16l0 48 48 0 0-48c0-8.8 7.2-16 16-16l32 0c8.8 0 16 7.2 16 16l0 96 0 112 64 0 0-48c0-8.8 7.2-16 16-16l32 0c8.8 0 16 7.2 16 16l0 96 0 192c0 26.5-21.5 48-48 48l-208 0 0-128c0-35.3-28.7-64-64-64s-64 28.7-64 64l0 128L48 512c-26.5 0-48-21.5-48-48L0 272l0-96c0-8.8 7.2-16 16-16l32 0c8.8 0 16 7.2 16 16l0 48 64 0 0-112 0-96z"/></svg>

<svg xmlns="http://www.w3.org/2000/svg" viewBox="0 0 640 512"><!--! Font Awesome Pro 6.4.2 by @fontawesome - https://fontawesome.com License - https://fontawesome.com/license (Commercial License) Copyright 2023 Fonticons, Inc. --><path d="M128 16c0-8.8 7.2-16 16-16h32c8.8 0 16 7.2 16 16V64h48V16c0-8.8 7.2-16 16-16h32c8.8 0 16 7.2 16 16V64h32V16c0-8.8 7.2-16 16-16h32c8.8 0 16 7.2 16 16V64h48V16c0-8.8 7.2-16 16-16h32c8.8 0 16 7.2 16 16v96V224h64V176c0-8.8 7.2-16 16-16h32c8.8 0 16 7.2 16 16v96V464c0 26.5-21.5 48-48 48H384V384c0-35.3-28.7-64-64-64s-64 28.7-64 64V512H48c-26.5 0-48-21.5-48-48V272 176c0-8.8 7.2-16 16-16H48c8.8 0 16 7.2 16 16v48h64V112 16z"/></svg>
